X: 13747
T: Forge Audition, The
R: reel
M: 4/4
K: Gmajor
|:B,EEF GE E/F/E|GEEG FEDF|A,DDE FEDB,|A,DFD EDB,A,|
B,EEF GE E/F/E|B,EEF G2 z A|Beed BcBA|1 GcBG AGFG:|2 G2 BGAG FA||
|:Beed BAFB|AF F/G/F DEFA|Beed BAFA|dgfd e^cdc|
Beed BAFA|^cdAF DE F/E/D|GE E/2F/2E FD D/2E/2D|A,B,DE FBAF:|E3|

